src/images/like.svg

<svg width="53" height="51" viewBox="0 0 53 51" fill="none" xmlns="http://www.w3.org/2000/svg">
<path d="M25.6943 0C25.1212 -0.000110626 24.5514 0.090538 24.0044 0.268848C21.6541 1.03373 20.1513 3.17784 20.1745 5.72925C20.1951 8.06155 19.7681 10.0981 18.9064 11.7784C17.8499 13.8392 16.0904 15.4254 13.6755 16.4941C13.441 16.5976 13.2283 16.7481 13.0496 16.9372C12.8709 17.1263 12.9996 16.754 12.9039 17C12.902 16.7346 12.8083 17.246 12.9039 17C13.0496 17.4806 12.8092 16.9533 12.9085 17.1978C13.0078 17.4422 13.1523 17.6638 13.3337 17.85C13.5152 18.0362 13.7301 18.1834 13.9661 18.283C14.2022 18.3827 14.4547 18.433 14.7094 18.4309C14.9641 18.4289 15.2159 18.3746 15.4504 18.2711C21.5 14 22.2952 11.7784 23.4567 4.05179C23.4583 3.70155 23.5667 3.36091 23.7662 3.07911C23.9658 2.79731 24.2462 2.58897 24.5669 2.4842C24.8877 2.37943 25.232 2.38368 25.5503 2.49632C25.8685 2.60896 27.0187 2.82417 27.2118 3.11081C30.8677 8.71773 29.4253 15.581 29.393 15.6429C29.2298 15.9498 29.1463 16.2959 29.1507 16.6468C29.1552 16.9977 29.2474 17.3413 29.4184 17.6437C29.5893 17.946 29.833 18.1967 30.1254 18.3708C30.4178 18.5449 30.7487 18.6365 31.0855 18.6365L47.5513 18.2711C48.0292 18.2844 50.2971 19.55 50.2971 20.825C50.2971 22.1 50.2971 21.675 50.2971 22.1C50.2971 22.525 49.8767 22.6379 49.0077 22.95C48.1386 23.2621 48.1962 23.3618 47.7182 23.375L46.2548 23.0575C45.7416 23.0575 45.2494 23.2699 44.8865 23.648C44.5236 24.0262 44.3198 24.5391 44.3198 25.0738C44.3198 25.6086 44.5236 26.1215 44.8865 26.4997C45.2494 26.8778 45.7416 27.0902 46.2548 27.0902C46.4955 27.0901 46.734 27.1394 46.9564 27.2353C47.1789 27.3312 47.3811 27.4719 47.5513 27.6493C47.7216 27.8267 47.8566 28.0374 47.9486 28.2692C48.0407 28.5011 48.088 28.7495 48.0878 29.0004C48.0871 29.5068 47.5317 30.6669 47.188 31.025C46.8444 31.3831 45.1508 31.2668 44.6648 31.2676H44.2798C43.7666 31.2676 43.2744 31.48 42.9116 31.8581C42.5487 32.2363 42.3448 32.7492 42.3448 33.284C42.3448 33.8187 42.5487 34.3316 42.9116 34.7098C43.2744 35.0879 43.7666 35.3004 44.2798 35.3004C44.7659 35.3004 45.2322 35.5016 45.576 35.8598C45.9197 36.2181 45.5692 36.4684 45.5692 36.975C45.5692 37.4816 44.883 37.9675 44.5392 38.3257C44.1954 38.684 43.8104 39.1643 43.3243 39.1643H40.6863C40.1731 39.1643 39.6809 39.3767 39.318 39.7548C38.9551 40.133 38.7513 40.6459 38.7513 41.1807C38.7513 41.7154 38.9551 42.2283 39.318 42.6065C39.6809 42.9846 40.1731 43.197 40.6863 43.197C41.1724 43.197 41.6387 43.3983 41.9824 43.7565C42.3262 44.1148 42.5193 44.6006 42.5193 45.1072C42.5193 45.6139 42.3262 46.0997 41.9824 46.458C41.6387 46.8162 41.1698 48.2835 40.6837 48.2835L28.2098 48.24C26.4893 48.2424 24.7824 47.9237 23.1698 47.299L14.4624 43.929C13.9944 43.7901 13.496 42.5739 13.0618 42.8027C12.6276 43.0316 12.292 43.4225 12.122 43.8975C11.952 44.3726 11.9599 44.8971 12.1443 45.3663C12.3287 45.8355 12.676 46.2151 13.117 46.4295L21.8244 49.7996C23.8678 50.5942 26.0313 51.0008 28.2124 51H39.3901C40.3496 50.9982 41.2932 50.7443 42.1336 50.2619C42.974 49.7795 43.6842 49.0841 44.1985 48.24C44.7128 47.3959 45.0147 46.4303 45.0761 45.4325C45.1375 44.4347 44.9566 43.4368 44.55 42.5311C45.8875 41.8408 46.9125 40.6323 47.4055 39.1643C47.8986 37.6962 47.8205 36.0854 47.188 34.6766C48.525 33.9861 49.5494 32.7776 50.0422 31.31C50.535 29.8423 50.4569 28.2319 49.8248 26.8234C50.9783 26.2291 51.905 25.2456 52.4543 24.033C53.0036 22.8203 53.1432 21.4497 52.8504 20.1439C52.5576 18.8381 51.8496 17.6739 50.8416 16.8404C49.8335 16.007 48.5845 15.5533 47.2977 15.5531H31.8643C32.7376 12.4465 33.313 7.37328 30.1254 2.4842C29.6411 1.721 28.983 1.09468 28.2098 0.661198C27.4365 0.227711 26.5723 0.000545502 25.6943 0Z" fill="#3A7D29"/>
<path d="M13.0582 15H1.94183C1.42683 15 0.932913 15.2146 0.568749 15.5966C0.204585 15.9786 0 16.4968 0 17.037V44.963C0 45.5032 0.204585 46.0214 0.568749 46.4034C0.932913 46.7854 1.42683 47 1.94183 47H13.0582C13.5732 47 14.0671 46.7854 14.4313 46.4034C14.7954 46.0214 15 45.5032 15 44.963V17.037C15 16.4968 14.7954 15.9786 14.4313 15.5966C14.0671 15.2146 13.5732 15 13.0582 15ZM2.58797 17.037H12.5085V44.963H2.58409L2.58797 17.037Z" fill="#3A7D29"/>
</svg>

<svg width="53" height="51" fill="none" xmlns="http://www.w3.org/2000/svg"><path d="M25.694 0c-.573 0-1.143.09-1.69.269-2.35.765-3.853 2.909-3.83 5.46.021 2.333-.406 4.37-1.268 6.05-1.056 2.06-2.816 3.646-5.23 4.715a1.939 1.939 0 00-.626.443c-.18.19-.05-.183-.146.063-.002-.265-.096.246 0 0 .146.48-.095-.047.005.198.099.244.243.466.425.652.181.186.396.333.632.433a1.87 1.87 0 001.484-.012c6.05-4.271 6.845-6.493 8.007-14.22.001-.35.11-.69.31-.972.199-.282.48-.49.8-.595.32-.105.665-.1.983.012.319.113 1.469.328 1.662.615 3.656 5.607 2.213 12.47 2.181 12.532a2.085 2.085 0 00.025 2c.171.303.415.554.707.728.293.174.624.266.96.266l16.466-.366c.478.013 2.746 1.279 2.746 2.554V22.1c0 .425-.42.538-1.29.85-.868.312-.81.412-1.289.425l-1.463-.317c-.513 0-1.006.212-1.369.59a2.06 2.06 0 00-.566 1.426c0 .535.204 1.047.566 1.426.363.378.856.59 1.369.59.24 0 .479.05.701.145.223.096.425.237.595.414.17.178.306.388.398.62.092.232.139.48.139.731 0 .507-.556 1.667-.9 2.025-.344.358-2.037.242-2.523.243h-.385c-.513 0-1.006.212-1.368.59a2.06 2.06 0 00-.567 1.426c0 .535.204 1.048.567 1.426.362.378.855.59 1.368.59.486 0 .952.202 1.296.56.344.358-.007.608-.007 1.115s-.686.992-1.03 1.35c-.344.359-.729.84-1.215.84h-2.638c-.513 0-1.005.212-1.368.59a2.06 2.06 0 00-.567 1.426c0 .534.204 1.047.567 1.425.363.379.855.591 1.368.591.486 0 .953.201 1.296.56.344.358.537.844.537 1.35 0 .507-.193.993-.537 1.351-.343.358-.812 1.825-1.298 1.825L28.21 48.24a13.891 13.891 0 01-5.04-.941l-8.708-3.37c-.468-.139-.966-1.355-1.4-1.126-.434.229-.77.62-.94 1.095-.17.475-.162 1 .022 1.468.185.47.532.85.973 1.063l8.707 3.37A17.599 17.599 0 0028.212 51H39.39a5.528 5.528 0 002.744-.738 5.813 5.813 0 002.065-2.022 6.166 6.166 0 00.351-5.709c1.338-.69 2.363-1.899 2.856-3.367a6.181 6.181 0 00-.218-4.487c1.337-.69 2.361-1.9 2.854-3.367a6.182 6.182 0 00-.217-4.487 5.835 5.835 0 002.63-2.79 6.172 6.172 0 00.395-3.89 5.978 5.978 0 00-2.008-3.303 5.56 5.56 0 00-3.544-1.287H31.864c.874-3.107 1.449-8.18-1.739-13.069A5.404 5.404 0 0028.21.661 5.147 5.147 0 0025.694 0z" fill="#3A7D29"/><path d="M13.058 15H1.942c-.515 0-1.01.215-1.373.597-.364.382-.569.9-.569 1.44v27.926c0 .54.205 1.058.569 1.44.364.382.858.597 1.373.597h11.116c.515 0 1.01-.215 1.373-.597.364-.382.569-.9.569-1.44V17.037a2.09 2.09 0 00-.569-1.44A1.897 1.897 0 0013.058 15zm-10.47 2.037h9.92v27.926H2.585l.004-27.926z" fill="#3A7D29"/></svg>
